public/img/i_2.svg

<svg width="177" height="270" viewBox="0 0 177 270" fill="none" xmlns="http://www.w3.org/2000/svg">
<path d="M117.165 193.785C117.165 235.69 106.928 269.661 94.2985 269.661C81.6695 269.661 71.4316 235.69 71.4316 193.785C71.4316 151.879 81.6695 117.908 94.2985 117.908C106.928 117.908 117.165 151.879 117.165 193.785Z" fill="#FEFEFE"/>
<path d="M19.8027 22.2789C8.57773 23.166 -0.026066 33.1209 3.40495 43.8454C4.94368 48.6551 6.89575 53.3359 9.24566 57.834C14.7538 68.3773 22.3342 77.6998 31.5326 85.2424C40.731 92.785 51.3578 98.3924 62.7759 101.728C74.194 105.064 86.1681 106.06 97.9804 104.656C109.793 103.252 121.2 99.4774 131.518 93.5579C141.836 87.6385 150.852 79.6963 158.026 70.2078C165.2 60.7192 170.384 49.8796 173.268 38.3389C174.498 33.4153 175.298 28.4073 175.667 23.3709C176.488 12.141 165.791 4.48017 154.671 6.2489L153.449 6.44321C143.003 8.10463 136.271 18.1941 133.708 28.4555C132.155 34.6698 129.364 40.5066 125.501 45.6159C121.638 50.7253 116.783 55.0019 111.227 58.1893C105.671 61.3768 99.5283 63.4094 93.1678 64.1654C86.8072 64.9214 80.3595 64.3852 74.2112 62.5889C68.0629 60.7925 62.3407 57.7731 57.3876 53.7116C52.4346 49.6502 48.3527 44.6303 45.3867 38.953C40.4892 29.5785 31.5797 21.3481 21.0358 22.1814L19.8027 22.2789Z" fill="#F1DA08"/>
</svg>

<svg width="177" height="270" fill="none" xmlns="http://www.w3.org/2000/svg"><path d="M117.165 193.785c0 41.905-10.237 75.876-22.867 75.876-12.629 0-22.866-33.971-22.866-75.876 0-41.906 10.237-75.877 22.867-75.877 12.629 0 22.866 33.971 22.866 75.877z" fill="#FEFEFE"/><path d="M19.803 22.279C8.578 23.166-.027 33.12 3.405 43.845a88.348 88.348 0 00154.621 26.363 88.365 88.365 0 0017.641-46.837c.821-11.23-9.876-18.89-20.996-17.122l-1.222.194c-10.446 1.662-17.178 11.751-19.741 22.012a47.581 47.581 0 01-22.481 29.734 47.575 47.575 0 01-65.84-19.236c-4.898-9.375-13.807-17.605-24.351-16.772l-1.233.098z" fill="#F1DA08"/></svg>
